X: 10564
T: Dorrington Lads, The
R: slip jig
M: 9/8
K: Gmajor
|:AD FA F/G/A/F/ dAF|AD FA F/G/A/F/ GEB|
|:B B B>A|B d e d|A A A G/A/|B d d2|
e e e>d|e f g a|g e d B/A/|G E E2:|

